pics/mengenlehre/venn-diagramm.svg

<?xml version="1.0" encoding="UTF-8" standalone="no"?>
<!-- Created with Inkscape (http://www.inkscape.org/) -->

<svg
   xmlns:ns0="http://www.iki.fi/pav/software/textext/"
   xmlns:dc="http://purl.org/dc/elements/1.1/"
   xmlns:cc="http://creativecommons.org/ns#"
   xmlns:rdf="http://www.w3.org/1999/02/22-rdf-syntax-ns#"
   xmlns:svg="http://www.w3.org/2000/svg"
   xmlns="http://www.w3.org/2000/svg"
   xmlns:xlink="http://www.w3.org/1999/xlink"
   xmlns:sodipodi="http://sodipodi.sourceforge.net/DTD/sodipodi-0.dtd"
   xmlns:inkscape="http://www.inkscape.org/namespaces/inkscape"
   width="1052.3622"
   height="744.09448"
   id="svg36025"
   version="1.1"
   inkscape:version="0.48.3.1 r9886"
   sodipodi:docname="venn-diagramm.svg"
   inkscape:export-filename="/home/waldgeist/data/pics/physik/Own/mathematik/venn-diagramm.png"
   inkscape:export-xdpi="100"
   inkscape:export-ydpi="100">
  <sodipodi:namedview
     id="base"
     pagecolor="#ffffff"
     bordercolor="#666666"
     borderopacity="1.0"
     inkscape:pageopacity="0.0"
     inkscape:pageshadow="2"
     inkscape:zoom="0.35"
     inkscape:cx="409.09802"
     inkscape:cy="321.41206"
     inkscape:document-units="px"
     inkscape:current-layer="layer1"
     showgrid="false"
     inkscape:window-width="1280"
     inkscape:window-height="974"
     inkscape:window-x="0"
     inkscape:window-y="0"
     inkscape:window-maximized="1"
     inkscape:snap-global="false" />
  <title
     id="title36514">Venn-Diagramm</title>
  <defs
     id="defs36027">
    <defs
       id="defs36352">
      <g
         id="g36354">
        <symbol
           id="textext-89ea37bc-0"
           overflow="visible"
           style="overflow:visible">
          <path
             id="path36357"
             d="m 1.625,-4.5625 c -0.453125,-0.296875 -0.5,-0.625 -0.5,-0.796875 0,-0.609375 0.65625,-1.03125 1.359375,-1.03125 0.71875,0 1.359375,0.515625 1.359375,1.234375 0,0.578125 -0.390625,1.046875 -0.984375,1.390625 z m 1.453125,0.953125 C 3.796875,-3.984375 4.28125,-4.5 4.28125,-5.15625 c 0,-0.921875 -0.875,-1.484375 -1.78125,-1.484375 -1,0 -1.8125,0.734375 -1.8125,1.671875 0,0.171875 0.015625,0.625 0.4375,1.09375 0.109375,0.109375 0.484375,0.359375 0.734375,0.53125 C 1.28125,-3.046875 0.421875,-2.5 0.421875,-1.5 c 0,1.046875 1.015625,1.71875 2.0625,1.71875 1.125,0 2.078125,-0.828125 2.078125,-1.890625 0,-0.359375 -0.109375,-0.8125 -0.5,-1.234375 C 3.875,-3.109375 3.71875,-3.203125 3.078125,-3.609375 z m -1,0.421875 1.234375,0.78125 c 0.28125,0.1875 0.75,0.484375 0.75,1.09375 0,0.734375 -0.75,1.25 -1.5625,1.25 -0.859375,0 -1.578125,-0.609375 -1.578125,-1.4375 0,-0.578125 0.3125,-1.21875 1.15625,-1.6875 z m 0,0"
             style="stroke:none"
             inkscape:connector-curvature="0" />
        </symbol>
      </g>
    </defs>
    <defs
       id="defs36250">
      <g
         id="g36252">
        <symbol
           overflow="visible"
           id="textext-ef24bb1e-0"
           style="overflow:visible">
          <path
             style="stroke:none"
             d="m 4.46875,-2 c 0,-1.1875 -0.8125,-2.1875 -1.890625,-2.1875 -0.46875,0 -0.90625,0.15625 -1.265625,0.515625 l 0,-1.953125 c 0.203125,0.0625 0.53125,0.125 0.84375,0.125 1.234375,0 1.9375,-0.90625 1.9375,-1.03125 0,-0.0625 -0.03125,-0.109375 -0.109375,-0.109375 0,0 -0.03125,0 -0.078125,0.03125 C 3.703125,-6.515625 3.21875,-6.3125 2.546875,-6.3125 2.15625,-6.3125 1.6875,-6.390625 1.21875,-6.59375 1.140625,-6.625 1.125,-6.625 1.109375,-6.625 1,-6.625 1,-6.546875 1,-6.390625 L 1,-3.4375 c 0,0.171875 0,0.25 0.140625,0.25 0.078125,0 0.09375,-0.015625 0.140625,-0.078125 C 1.390625,-3.421875 1.75,-3.96875 2.5625,-3.96875 c 0.515625,0 0.765625,0.453125 0.84375,0.640625 0.15625,0.375 0.1875,0.75 0.1875,1.25 0,0.359375 0,0.953125 -0.25,1.375 C 3.109375,-0.3125 2.734375,-0.0625 2.28125,-0.0625 c -0.71875,0 -1.296875,-0.53125 -1.46875,-1.109375 0.03125,0 0.0625,0.015625 0.171875,0.015625 0.328125,0 0.5,-0.25 0.5,-0.484375 0,-0.25 -0.171875,-0.5 -0.5,-0.5 C 0.84375,-2.140625 0.5,-2.0625 0.5,-1.609375 0.5,-0.75 1.1875,0.21875 2.296875,0.21875 3.453125,0.21875 4.46875,-0.734375 4.46875,-2 z m 0,0"
             id="path36255"
             inkscape:connector-curvature="0" />
        </symbol>
      </g>
    </defs>
    <defs
       id="defs36164">
      <g
         id="g36166">
        <symbol
           id="textext-ad032493-0"
           overflow="visible"
           style="overflow:visible">
          <path
             id="path36169"
             d="m 2.890625,-3.515625 c 0.8125,-0.265625 1.390625,-0.953125 1.390625,-1.75 0,-0.8125 -0.875,-1.375 -1.828125,-1.375 -1,0 -1.765625,0.59375 -1.765625,1.359375 0,0.328125 0.21875,0.515625 0.515625,0.515625 0.296875,0 0.5,-0.21875 0.5,-0.515625 0,-0.484375 -0.46875,-0.484375 -0.609375,-0.484375 0.296875,-0.5 0.953125,-0.625 1.3125,-0.625 0.421875,0 0.96875,0.21875 0.96875,1.109375 0,0.125 -0.03125,0.703125 -0.28125,1.140625 C 2.796875,-3.65625 2.453125,-3.625 2.203125,-3.625 2.125,-3.609375 1.890625,-3.59375 1.8125,-3.59375 c -0.078125,0.015625 -0.140625,0.03125 -0.140625,0.125 0,0.109375 0.0625,0.109375 0.234375,0.109375 l 0.4375,0 c 0.8125,0 1.1875,0.671875 1.1875,1.65625 0,1.359375 -0.6875,1.640625 -1.125,1.640625 -0.4375,0 -1.1875,-0.171875 -1.53125,-0.75 0.34375,0.046875 0.65625,-0.171875 0.65625,-0.546875 0,-0.359375 -0.265625,-0.5625 -0.546875,-0.5625 -0.25,0 -0.5625,0.140625 -0.5625,0.578125 0,0.90625 0.921875,1.5625 2.015625,1.5625 1.21875,0 2.125,-0.90625 2.125,-1.921875 0,-0.8125 -0.640625,-1.59375 -1.671875,-1.8125 z m 0,0"
             style="stroke:none"
             inkscape:connector-curvature="0" />
        </symbol>
      </g>
    </defs>
    <defs
       id="defs36094">
      <g
         id="g36096">
        <symbol
           overflow="visible"
           id="textext-ba8ce2a6-0"
           style="overflow:visible">
          <path
             style="stroke:none"
             d="m 1.265625,-0.765625 1.0625,-1.03125 c 1.546875,-1.375 2.140625,-1.90625 2.140625,-2.90625 0,-1.140625 -0.890625,-1.9375 -2.109375,-1.9375 -1.125,0 -1.859375,0.921875 -1.859375,1.8125 0,0.546875 0.5,0.546875 0.53125,0.546875 0.171875,0 0.515625,-0.109375 0.515625,-0.53125 0,-0.25 -0.1875,-0.515625 -0.53125,-0.515625 -0.078125,0 -0.09375,0 -0.125,0.015625 0.21875,-0.65625 0.765625,-1.015625 1.34375,-1.015625 0.90625,0 1.328125,0.8125 1.328125,1.625 C 3.5625,-3.90625 3.078125,-3.125 2.515625,-2.5 l -1.90625,2.125 C 0.5,-0.265625 0.5,-0.234375 0.5,0 l 3.703125,0 0.265625,-1.734375 -0.234375,0 C 4.171875,-1.4375 4.109375,-1 4,-0.84375 3.9375,-0.765625 3.28125,-0.765625 3.0625,-0.765625 z m 0,0"
             id="path36099"
             inkscape:connector-curvature="0" />
        </symbol>
      </g>
    </defs>
    <defs
       id="defs36040">
      <g
         id="g36042">
        <symbol
           id="textext-e7fc490d-0"
           overflow="visible"
           style="overflow:visible">
          <path
             id="path36045"
             d="m 2.9375,-6.375 c 0,-0.25 0,-0.265625 -0.234375,-0.265625 C 2.078125,-6 1.203125,-6 0.890625,-6 l 0,0.3125 c 0.203125,0 0.78125,0 1.296875,-0.265625 l 0,5.171875 c 0,0.359375 -0.03125,0.46875 -0.921875,0.46875 l -0.3125,0 0,0.3125 c 0.34375,-0.03125 1.203125,-0.03125 1.609375,-0.03125 0.390625,0 1.265625,0 1.609375,0.03125 l 0,-0.3125 -0.3125,0 c -0.90625,0 -0.921875,-0.109375 -0.921875,-0.46875 z m 0,0"
             style="stroke:none"
             inkscape:connector-curvature="0" />
        </symbol>
      </g>
    </defs>
  </defs>
  <metadata
     id="metadata36030">
    <rdf:RDF>
      <cc:Work
         rdf:about="">
        <dc:format>image/svg+xml</dc:format>
        <dc:type
           rdf:resource="http://purl.org/dc/dcmitype/StillImage" />
        <dc:title>Venn-Diagramm</dc:title>
        <cc:license
           rdf:resource="http://creativecommons.org/licenses/by-nc-sa/3.0/" />
        <dc:date>2012-08-12</dc:date>
        <dc:creator>
          <cc:Agent>
            <dc:title>Bernhard Grotz</dc:title>
          </cc:Agent>
        </dc:creator>
        <dc:rights>
          <cc:Agent>
            <dc:title>Bernhard Grotz</dc:title>
          </cc:Agent>
        </dc:rights>
        <dc:publisher>
          <cc:Agent>
            <dc:title>Bernhard Grotz</dc:title>
          </cc:Agent>
        </dc:publisher>
        <dc:language>de-DE</dc:language>
        <dc:subject>
          <rdf:Bag>
            <rdf:li>Mathematik</rdf:li>
            <rdf:li>Mengenlehre</rdf:li>
            <rdf:li>Menge</rdf:li>
            <rdf:li>Venn-Diagramm</rdf:li>
          </rdf:Bag>
        </dc:subject>
      </cc:Work>
      <cc:License
         rdf:about="http://creativecommons.org/licenses/by-nc-sa/3.0/">
        <cc:permits
           rdf:resource="http://creativecommons.org/ns#Reproduction" />
        <cc:permits
           rdf:resource="http://creativecommons.org/ns#Distribution" />
        <cc:requires
           rdf:resource="http://creativecommons.org/ns#Notice" />
        <cc:requires
           rdf:resource="http://creativecommons.org/ns#Attribution" />
        <cc:prohibits
           rdf:resource="http://creativecommons.org/ns#CommercialUse" />
        <cc:permits
           rdf:resource="http://creativecommons.org/ns#DerivativeWorks" />
        <cc:requires
           rdf:resource="http://creativecommons.org/ns#ShareAlike" />
      </cc:License>
    </rdf:RDF>
  </metadata>
  <g
     inkscape:label="Layer 1"
     inkscape:groupmode="layer"
     id="layer1"
     transform="translate(0,-308.2677)">
    <rect
       style="fill:#ffffff;fill-opacity:1;stroke:#ffffff;stroke-width:6"
       id="rect36516-8"
       width="984.91638"
       height="578.2074"
       x="33.7229"
       y="391.21124"
       ry="2.6893368"
       inkscape:export-filename="/home/waldgeist/data/pics/physik/Own/mathematik/venn-diagramm.png"
       inkscape:export-xdpi="150"
       inkscape:export-ydpi="150" />
    <use
       transform="matrix(9.1747899,0,0,9.1747899,-1602.5835,-435.65694)"
       id="use36050"
       y="134.765"
       x="223.43201"
       xlink:href="#textext-e7fc490d-0"
       width="744.09448"
       height="1052.3622"
       style="fill:#000000;fill-opacity:1"
       inkscape:export-filename="/home/waldgeist/data/pics/physik/Own/mathematik/venn-diagramm.png"
       inkscape:export-xdpi="150"
       inkscape:export-ydpi="150" />
    <use
       transform="matrix(9.1747899,0,0,9.1747899,-1536.869,-647.08551)"
       xlink:href="#textext-ba8ce2a6-0"
       x="223.43201"
       y="134.765"
       id="use36104"
       width="744.09448"
       height="1052.3622"
       style="fill:#000000;fill-opacity:1"
       inkscape:export-filename="/home/waldgeist/data/pics/physik/Own/mathematik/venn-diagramm.png"
       inkscape:export-xdpi="150"
       inkscape:export-ydpi="150" />
    <use
       transform="matrix(9.1747899,0,0,9.1747899,-1445.4405,-409.94264)"
       id="use36174"
       y="134.765"
       x="223.43201"
       xlink:href="#textext-ad032493-0"
       width="744.09448"
       height="1052.3622"
       style="fill:#000000;fill-opacity:1"
       inkscape:export-filename="/home/waldgeist/data/pics/physik/Own/mathematik/venn-diagramm.png"
       inkscape:export-xdpi="150"
       inkscape:export-ydpi="150" />
    <use
       transform="matrix(9.1747899,0,0,9.1747899,-1708.2978,-558.51408)"
       xlink:href="#textext-ef24bb1e-0"
       x="223.43201"
       y="134.765"
       id="use36260"
       width="744.09448"
       height="1052.3622"
       style="fill:#000000;fill-opacity:1"
       inkscape:export-filename="/home/waldgeist/data/pics/physik/Own/mathematik/venn-diagramm.png"
       inkscape:export-xdpi="150"
       inkscape:export-ydpi="150" />
    <use
       transform="matrix(9.1747899,0,0,9.1747899,-1405.4407,-555.65693)"
       id="use36362"
       y="134.765"
       x="223.43201"
       xlink:href="#textext-89ea37bc-0"
       width="744.09448"
       height="1052.3622"
       style="fill:#000000;fill-opacity:1"
       inkscape:export-filename="/home/waldgeist/data/pics/physik/Own/mathematik/venn-diagramm.png"
       inkscape:export-xdpi="150"
       inkscape:export-ydpi="150" />
    <g
       id="g37825"
       style="fill:#000080"
       transform="matrix(9.1747899,0,0,9.1747899,-1274.7313,-726.4658)"
       ns0:preamble="/home/waldgeist/.config/inkscape/extensions/preamble.tex"
       ns0:text="$\\mathbb{M}$"
       inkscape:export-filename="/home/waldgeist/data/pics/physik/Own/mathematik/venn-diagramm.png"
       inkscape:export-xdpi="150"
       inkscape:export-ydpi="150">
      <defs
         id="defs37827">
        <g
           id="g37829">
          <symbol
             id="textext-e4a167a3-0"
             overflow="visible"
             style="overflow:visible">
            <path
               id="path37832"
               d="M 4.640625,-2.09375 2.734375,-6.625 C 2.65625,-6.828125 2.65625,-6.828125 2.375,-6.828125 l -1.84375,0 c -0.1875,0 -0.328125,0 -0.328125,0.171875 0,0.171875 0.171875,0.171875 0.21875,0.171875 0.125,0 0.390625,0.03125 0.609375,0.109375 l 0,5.3125 c 0,0.21875 0,0.65625 -0.671875,0.71875 -0.1875,0.015625 -0.1875,0.15625 -0.1875,0.171875 C 0.171875,0 0.328125,0 0.515625,0 l 1.53125,0 C 2.234375,0 2.375,0 2.375,-0.171875 2.375,-0.265625 2.296875,-0.34375 2.21875,-0.34375 1.453125,-0.40625 1.453125,-0.828125 1.453125,-1.0625 l 0,-4.953125 0.015625,-0.015625 2.421875,5.828125 C 3.984375,-0.03125 4.046875,0 4.109375,0 4.234375,0 4.25,-0.078125 4.3125,-0.203125 L 6.75,-6.03125 l 0.015625,0.015625 0,4.953125 c 0,0.21875 0,0.65625 -0.6875,0.71875 -0.1875,0.015625 -0.1875,0.15625 -0.1875,0.171875 C 5.890625,0 6.046875,0 6.234375,0 l 2.65625,0 C 9.078125,0 9.21875,0 9.21875,-0.171875 9.21875,-0.265625 9.140625,-0.34375 9.0625,-0.34375 8.296875,-0.40625 8.296875,-0.828125 8.296875,-1.0625 l 0,-4.703125 c 0,-0.21875 0,-0.65625 0.671875,-0.71875 0.109375,0 0.1875,-0.0625 0.1875,-0.171875 0,-0.171875 -0.140625,-0.171875 -0.328125,-0.171875 l -1.921875,0 c -0.25,0 -0.28125,0 -0.359375,0.203125 z M 4.34375,-1.90625 C 4.421875,-1.75 4.4375,-1.734375 4.5625,-1.6875 l -0.453125,1.046875 -0.015625,0 L 1.828125,-6.0625 C 1.78125,-6.1875 1.6875,-6.359375 1.5625,-6.484375 l 0.859375,0 z m -3.015625,1.5625 -0.15625,0 C 1.1875,-0.375 1.203125,-0.40625 1.21875,-0.421875 1.234375,-0.4375 1.234375,-0.453125 1.25,-0.453125 z m 5.78125,-6.140625 1.0625,0 C 7.9375,-6.234375 7.9375,-5.96875 7.9375,-5.796875 l 0,4.765625 c 0,0.171875 0,0.4375 0.234375,0.6875 l -1.28125,0 c 0.21875,-0.25 0.21875,-0.515625 0.21875,-0.6875 z m 0,0"
               style="stroke:none"
               inkscape:connector-curvature="0" />
          </symbol>
        </g>
      </defs>
      <g
         id="textext-e4a167a3-1"
         style="fill:#000080">
        <g
           id="g37835"
           style="fill:#000080;fill-opacity:1">
          <use
             id="use37837"
             y="134.765"
             x="223.43201"
             xlink:href="#textext-e4a167a3-0"
             style="fill:#000080"
             width="744.09448"
             height="1052.3622" />
        </g>
      </g>
    </g>
    <rect
       style="color:#000000;fill:none;stroke:#000080;stroke-width:3;stroke-linecap:round;stroke-linejoin:bevel;stroke-miterlimit:4;stroke-opacity:1;stroke-dasharray:none;stroke-dashoffset:0;marker:none;visibility:visible;display:inline;overflow:visible;enable-background:accumulate"
       id="rect3138"
       width="527.32452"
       height="422.85715"
       x="262.51883"
       y="468.88635"
       ry="211.42857"
       rx="211.43929"
       inkscape:export-filename="/home/waldgeist/data/pics/physik/Own/mathematik/venn-diagramm.png"
       inkscape:export-xdpi="150"
       inkscape:export-ydpi="150" />
  </g>
</svg>

<svg xmlns:ns0="http://www.iki.fi/pav/software/textext/" xmlns="http://www.w3.org/2000/svg" xmlns:xlink="http://www.w3.org/1999/xlink" width="1052.362" height="744.094"><title>Venn-Diagramm</title><defs><symbol id="e" overflow="visible"><path d="M1.625-4.563c-.453-.296-.5-.625-.5-.796 0-.61.656-1.032 1.36-1.032.718 0 1.359.516 1.359 1.235 0 .578-.39 1.047-.985 1.39zm1.453.954c.719-.375 1.203-.891 1.203-1.547 0-.922-.875-1.485-1.781-1.485-1 0-1.813.735-1.813 1.672 0 .172.016.625.438 1.094.11.11.484.36.734.531C1.281-3.047.422-2.5.422-1.5.422-.453 1.438.219 2.484.219c1.125 0 2.079-.828 2.079-1.89 0-.36-.11-.813-.5-1.235-.188-.203-.344-.297-.985-.703zm-1 .421l1.235.782c.28.187.75.484.75 1.094 0 .734-.75 1.25-1.563 1.25C1.64-.063.922-.672.922-1.5c0-.578.312-1.219 1.156-1.688zm0 0"/></symbol><symbol overflow="visible" id="d"><path d="M4.469-2c0-1.188-.813-2.188-1.89-2.188-.47 0-.907.157-1.267.516v-1.953c.204.063.532.125.844.125 1.235 0 1.938-.906 1.938-1.031 0-.063-.032-.11-.11-.11 0 0-.03 0-.078.032a3.22 3.22 0 0 1-1.36.296c-.39 0-.858-.078-1.327-.28-.078-.032-.094-.032-.11-.032C1-6.625 1-6.547 1-6.391v2.954c0 .171 0 .25.14.25.079 0 .094-.016.141-.079.11-.156.469-.703 1.282-.703.515 0 .765.453.843.64.156.376.188.75.188 1.25 0 .36 0 .954-.25 1.376-.235.39-.61.64-1.063.64-.719 0-1.297-.53-1.469-1.109.032 0 .063.016.172.016.329 0 .5-.25.5-.485 0-.25-.171-.5-.5-.5-.14 0-.484.079-.484.532C.5-.75 1.188.219 2.297.219 3.453.219 4.469-.734 4.469-2zm0 0"/></symbol><symbol id="c" overflow="visible"><path d="M2.89-3.516c.813-.265 1.391-.953 1.391-1.75 0-.812-.875-1.375-1.828-1.375-1 0-1.765.594-1.765 1.36 0 .328.218.515.515.515.297 0 .5-.218.5-.515 0-.485-.469-.485-.61-.485.298-.5.954-.625 1.313-.625.422 0 .969.22.969 1.11 0 .125-.031.703-.281 1.14-.297.485-.64.516-.89.516a3.29 3.29 0 0 1-.392.031c-.078.016-.14.031-.14.125 0 .11.062.11.234.11h.438c.812 0 1.187.671 1.187 1.656 0 1.36-.687 1.64-1.125 1.64-.437 0-1.187-.171-1.531-.75.344.047.656-.171.656-.546a.537.537 0 0 0-.547-.563c-.25 0-.562.14-.562.578C.422-.437 1.344.22 2.437.22c1.22 0 2.126-.906 2.126-1.922 0-.813-.641-1.594-1.672-1.813zm0 0"/></symbol><symbol overflow="visible" id="b"><path d="M1.266-.766l1.062-1.03c1.547-1.376 2.14-1.907 2.14-2.907 0-1.14-.89-1.938-2.109-1.938C1.234-6.64.5-5.719.5-4.828c0 .547.5.547.531.547.172 0 .516-.11.516-.532a.513.513 0 0 0-.531-.515c-.079 0-.094 0-.125.016.218-.657.765-1.016 1.343-1.016.907 0 1.329.812 1.329 1.625 0 .797-.485 1.578-1.047 2.203L.609-.375C.5-.265.5-.235.5 0h3.703l.266-1.734h-.235C4.172-1.438 4.11-1 4-.844c-.063.078-.719.078-.938.078zm0 0"/></symbol><symbol id="a" overflow="visible"><path d="M2.938-6.375c0-.25 0-.266-.235-.266C2.078-6 1.203-6 .891-6v.313c.203 0 .78 0 1.296-.266v5.172c0 .36-.03.469-.921.469H.953V0c.344-.031 1.203-.031 1.61-.031.39 0 1.265 0 1.609.031v-.313h-.313c-.906 0-.921-.109-.921-.468zm0 0"/></symbol></defs><g transform="translate(0 -308.268)"><rect width="984.916" height="578.207" x="33.723" y="391.211" ry="2.689" fill="#fff" stroke="#fff" stroke-width="6"/><use transform="matrix(9.17479 0 0 9.17479 -1602.583 -435.657)" y="134.765" x="223.432" xlink:href="#a" width="744.094" height="1052.362"/><use transform="matrix(9.17479 0 0 9.17479 -1536.869 -647.086)" xlink:href="#b" x="223.432" y="134.765" width="744.094" height="1052.362"/><use transform="matrix(9.17479 0 0 9.17479 -1445.44 -409.943)" y="134.765" x="223.432" xlink:href="#c" width="744.094" height="1052.362"/><use transform="matrix(9.17479 0 0 9.17479 -1708.298 -558.514)" xlink:href="#d" x="223.432" y="134.765" width="744.094" height="1052.362"/><use transform="matrix(9.17479 0 0 9.17479 -1405.44 -555.657)" y="134.765" x="223.432" xlink:href="#e" width="744.094" height="1052.362"/><g transform="matrix(9.17479 0 0 9.17479 -1274.731 -726.466)" ns0:preamble="/home/waldgeist/.config/inkscape/extensions/preamble.tex" ns0:text="$\\mathbb{M}$" fill="navy"><defs><symbol id="f" overflow="visible"><path d="M4.64-2.094L2.735-6.625c-.078-.203-.078-.203-.359-.203H.531c-.187 0-.328 0-.328.172s.172.172.219.172c.125 0 .39.03.61.109v5.313c0 .218 0 .656-.673.718-.187.016-.187.156-.187.172C.172 0 .328 0 .516 0h1.53c.188 0 .329 0 .329-.172 0-.094-.078-.172-.156-.172-.766-.062-.766-.484-.766-.719v-4.953l.016-.015L3.89-.203c.093.172.156.203.218.203.125 0 .141-.078.204-.203L6.75-6.031l.016.015v4.954c0 .218 0 .656-.688.718-.187.016-.187.156-.187.172 0 .172.156.172.343.172h2.657c.187 0 .328 0 .328-.172 0-.094-.078-.172-.156-.172-.766-.062-.766-.484-.766-.719v-4.703c0-.218 0-.656.672-.718.11 0 .187-.063.187-.172 0-.172-.14-.172-.328-.172H6.906c-.25 0-.281 0-.36.203zm-.296.188c.078.156.093.172.218.218L4.11-.64h-.015L1.828-6.062a1.26 1.26 0 0 0-.266-.422h.86zM1.328-.344h-.156c.016-.031.031-.062.047-.078.015-.016.015-.031.031-.031zm5.781-6.14h1.063c-.235.25-.235.515-.235.687v4.766c0 .172 0 .437.235.687H6.89c.218-.25.218-.515.218-.687zm0 0"/></symbol></defs><use y="134.765" x="223.432" xlink:href="#f" width="744.094" height="1052.362"/></g><rect style="marker:none" width="527.325" height="422.857" x="262.519" y="468.886" ry="211.429" rx="211.439" color="#000" fill="none" stroke="navy" stroke-width="3" stroke-linecap="round" stroke-linejoin="bevel" overflow="visible"/></g></svg>
